dist/svgs/crypto-icons/icons/opal.svg

<?xml version="1.0" encoding="UTF-8" standalone="yes"?>
<svg xmlns="http://www.w3.org/2000/svg" xmlns:xlink="http://www.w3.org/1999/xlink" width="512px" height="512px" viewBox="0 0 384 384" version="1.1">
  <g id="surface1">
    <path style=" stroke:none;fill-rule:nonzero;fill:rgb(0%,0%,0%);fill-opacity:1;" d="M 187.847656 0 L 111.0625 44.332031 L 187.847656 88.667969 Z M 102.84375 137.785156 L 102.84375 49.117188 L 26.0625 93.449219 Z M 102.84375 236.4375 L 102.84375 147.769531 L 26.0625 192.101562 Z M 102.84375 335.089844 L 102.84375 246.421875 L 26.0625 290.753906 Z M 23.503906 197.09375 L 23.503906 285.761719 L 100.289062 241.429688 Z M 23.503906 98.441406 L 23.503906 187.105469 L 100.289062 142.773438 Z M 108.699219 49.117188 L 108.699219 137.785156 L 185.480469 93.449219 Z M 187.847656 383.621094 L 187.847656 294.957031 L 111.0625 339.289062 Z M 108.699219 245.835938 L 108.699219 334.503906 L 185.480469 290.171875 Z M 193.996094 0 L 193.996094 88.667969 L 270.78125 44.332031 Z M 279 49.117188 L 279 137.785156 L 355.785156 93.449219 Z M 279 147.769531 L 279 236.4375 L 355.785156 192.101562 Z M 279 335.089844 L 355.785156 290.753906 L 279 246.421875 Z M 358.339844 285.761719 L 358.339844 197.09375 L 281.554688 241.429688 Z M 281.554688 142.773438 L 358.339844 187.105469 L 358.339844 98.441406 Z M 273.144531 137.785156 L 273.144531 49.117188 L 196.359375 93.449219 Z M 193.996094 383.621094 L 270.777344 339.289062 L 193.996094 294.957031 Z M 273.144531 334.503906 L 273.144531 245.835938 L 196.359375 290.171875 Z M 273.144531 334.503906 "/>
  </g>
</svg>

<svg xmlns="http://www.w3.org/2000/svg" viewBox="0 0 384 384"><path d="M187.848 0l-76.786 44.332 76.786 44.336zm-85.004 137.785V49.117L26.063 93.45zm0 98.653V147.77l-76.781 44.332zm0 98.652v-88.668l-76.781 44.332zm-79.34-137.996v88.668l76.785-44.332zm0-98.653v88.664l76.785-44.332zm85.195-49.324v88.668L185.48 93.45zm79.149 334.504v-88.664l-76.786 44.332zm-79.149-137.785v88.668l76.781-44.332zM193.996 0v88.668l76.785-44.336zM279 49.117v88.668l76.785-44.336zm0 98.653v88.667l76.785-44.335zm0 187.32l76.785-44.336L279 246.422zm79.34-49.328v-88.668l-76.785 44.336zm-76.785-142.989l76.785 44.332V98.441zm-8.41-4.988V49.117L196.359 93.45zm-79.149 245.836l76.781-44.332-76.78-44.332zm79.149-49.117v-88.668l-76.786 44.336zm0 0"/></svg>
